X:28
T: HUSSE BUSSEE DAT ERSTE JAHR TWEE
N: K0112
O: Europa, Mitteleuropa, Deutschland, Norddeutschland, Holstein
R: Kinder -, Wiegen - Lied
M: 3/4
L: 1/8
K: G
 | B2B2A2 | G2z2
G2 | B2B2A2 | G2z2
G2 | B2B2B2 | c2c2c2
AAA2A2 | d2d2d2
B2B2A2 | G4z2

